X:95
T:Sun In September()
M:2/4
L:1/8
R:air
Z:Steve Mansfield 05 May 2002
K:G
g2d2 | B2AG | e2A2 | F4 | GBdB | Ac eg | fgef | d4 |
g2d2 | B2AG | e2A2 | F4 | GBdB | AB ce | dcBA | G4 :|
Bd gf | e2 dc | Bd gf | e2 dc | Bd gf | fe ed |
dc Bc | Bc A2 | cB AG | F/G/A D2 | cB AG |
e/f/g f2 | g2 ge | dc BA | D2 F2 | G4 ||
